assets/icons/technologies/githubactions.svg

<svg height="256" preserveAspectRatio="xMidYMid" viewBox="0 0 256 256" width="256" xmlns="http://www.w3.org/2000/svg"><path d="m53.6039685 0c29.6040515 0 53.6039685 23.9920988 53.6039685 53.5905987 0 29.0900763-23.1889852 52.7496383-52.092978 53.5521233 0 2.461507.1087068 7.111647 1.5014937 9.919428 1.9324918 3.89425 13.524111 11.144884 24.8918175 11.144884h4.083981c2.5665763-18.271188 18.2565038-32.3320787 37.2396388-32.3320787 18.906166 0 34.550278 13.9463807 37.211234 32.1094717h21.129126c2.661873-18.163091 18.305068-32.1094717 37.211234-32.1094717 20.774516 0 37.616241 16.8366087 37.616241 37.6068587 0 20.769335-16.841725 37.605943-37.616241 37.605943-18.906166 0-34.550278-13.947296-37.211234-32.110387h-21.12821c-2.660956 18.163091-18.305068 32.110387-37.21215 32.110387-18.870429 0-34.4934663-13.893248-37.198405-32.00687l-4.5155616.134663c-7.4349163-.05588-15.2894511-2.041257-21.5982258-6.327588-1.7199086-1.168917-3.4142106-2.397082-5.1817671-3.560502l-.0005131 2.441824c-.0096407.789433-.1520355 12.656896-.1634803 25.833187l-.0003837 2.789917c.005344 8.641042.0736627 17.544706.2770829 24.038971.4462416 14.246854 12.0347781 25.745473 24.8227608 28.436912 1.6621811.349026 4.5201431.393914 6.3206867.23818 2.5711579-18.264775 18.2592522-32.320169 37.2378062-32.320169 20.774516 0 37.616241 16.837525 37.616241 37.606859s-16.841725 37.606859-37.616241 37.606859c-18.768719 0-34.3230331-13.743927-37.1525896-31.713725h-3.2538067c-24.4360792-1.333811-39.6284518-23.74659-39.363639-41.923422.3344521-22.877231.0824676-45.763623.0788024-68.646351v-7.564061c-24.5946003-4.866209-43.1406571-26.5461258-43.1406571-52.5618423 0-29.5984999 23.9990007-53.5905987 53.6039685-53.5905987zm69.2279215 191.779225c-14.701232 0-26.6196389 11.915435-26.6196389 26.613916s11.9184069 26.613916 26.6196389 26.613916c14.702148 0 26.620556-11.915435 26.620556-26.613916s-11.918408-26.613916-26.620556-26.613916zm0-84.911326c-14.701232 0-26.6196389 11.915434-26.6196389 26.613915 0 14.697566 11.9184069 26.613 26.6196389 26.613 14.702148 0 26.620556-11.915434 26.620556-26.613 0-14.698481-11.918408-26.613915-26.620556-26.613915zm95.551594 0c-14.702148 0-26.619639 11.915434-26.619639 26.613915 0 14.697566 11.917491 26.613 26.619639 26.613s26.620555-11.915434 26.620555-26.613c0-14.698481-11.918407-26.613915-26.620555-26.613915zm15.160577 15.408533c2.094678 2.089576 2.152405 5.447004.170433 7.605285l-.160354.168559-16.309351 16.344674c-2.078185 2.083163-5.414459 2.152785-7.576944.197873l-.172266-.163062-7.9847-7.859954c-2.163401-2.129883-2.190891-5.610066-.060476-7.772927 2.076352-2.107897 5.433701-2.187596 7.606265-.219859l.168601.160313 4.092227 4.027082 12.451698-12.477907c2.144159-2.150036 5.62521-2.153701 7.774867-.010077zm-95.989864-.080523c2.094678 2.089575 2.152406 5.447004.170433 7.606201l-.160353.167642-16.309351 16.344675c-2.078185 2.083163-5.414459 2.152785-7.576944.197873l-.172266-.163062-7.984701-7.859955c-2.163401-2.129882-2.19089-5.610065-.060476-7.772927 2.075436-2.107897 5.433702-2.187595 7.606266-.218942l.1686.159397 4.092228 4.027082 12.451698-12.477907c2.144159-2.14912 5.62521-2.153701 7.774866-.010077zm-83.9502285-111.2029657c-23.531684 0-42.6082827 19.0709246-42.6082827 42.5976554 0 23.5258149 19.0765987 42.5976555 42.6082827 42.5976555s42.6082826-19.0718406 42.6082826-42.5976555c0-23.5267308-19.0765986-42.5976554-42.6082826-42.5976554zm-4.4333689 17.137449c8.9642329 5.3856262 17.8075132 10.9563002 26.5307573 16.7111061 7.3075495 4.8204056 7.2892234 13.5625438-.0998775 18.3939424-8.8790163 5.8097705-17.8991439 11.3804446-27.0585502 16.7120221-7.455075 4.3394644-15.7998843-.6504158-16.0023882-9.3440018-.1301156-5.6027368-.0238239-11.2109701-.0311544-16.8173712-.0064141-5.454332-.1136221-10.9114123.0183261-16.3629961.2226627-9.2478136 8.7360724-14.0663871 16.6428869-9.2927015zm-5.9092649 8.8713053v3.8686c-.0009163 1.9155204-.0009163 3.8053905-.0018326 5.6741909l-.0009163 3.7101184v5.4808983c.0009163 4.230451.0027489 8.3940283.0100794 12.5576056.0036652 1.9594922 1.0235151 1.8797933 2.3429974 1.0626512 7.6053494-4.7141405 15.214364-9.4227846 22.8270438-14.1268483 1.2580897-.7759186 1.2938257-1.5866481.05956-2.3653149-8.1533011-5.138285-16.3175978-10.2591644-25.2369317-15.8619012z" fill="#4a7ebf"/><g fill="#85b3df"><path d="m133.22712 223.879078c3.035726 0 5.497843-2.460588 5.497843-5.496472 0-3.034968-2.462117-5.496472-5.497843-5.496472s-5.497843 2.461504-5.497843 5.496472c0 3.035884 2.462117 5.496472 5.497843 5.496472"/><path d="m112.178903 223.879078c3.035726 0 5.497843-2.460588 5.497843-5.496472 0-3.034968-2.462117-5.496472-5.497843-5.496472-3.035725 0-5.497843 2.461504-5.497843 5.496472 0 3.035884 2.462118 5.496472 5.497843 5.496472"/><path d="m218.383759 245.007057c-14.702149 0-26.619639-11.915435-26.619639-26.613916s11.91749-26.613916 26.619639-26.613916c14.701232 0 26.620555 11.915435 26.620555 26.613916s-11.919323 26.613916-26.620555 26.613916m0-64.220775c-18.906166 0-34.550278 13.947297-37.211234 32.110387h-6.152086c-2.685696 0-4.864675 2.461503-4.864675 5.496472 0 3.035884 2.178979 5.496472 4.864675 5.496472h6.152086c2.660956 18.16309 18.305068 32.110387 37.211234 32.110387 20.774516 0 37.616241-16.837525 37.616241-37.606859s-16.841725-37.606859-37.616241-37.606859"/></g></svg>

<?xml version="1.0" encoding="UTF-8"?>
<svg width="256px" height="256px" viewBox="0 0 256 256" version="1.1" xmlns="http://www.w3.org/2000/svg" xmlns:xlink="http://www.w3.org/1999/xlink" preserveAspectRatio="xMidYMid">
    <title>GitHub Actions</title>
    <g>
				<path d="M53.6039685,0 C83.20802,0 107.207937,23.9920988 107.207937,53.5905987 C107.207937,82.680675 84.0189518,106.340237 55.114959,107.142722 C55.114959,109.604229 55.2236658,114.254369 56.6164527,117.06215 C58.5489445,120.9564 70.1405637,128.207034 81.5082702,128.207034 L81.5082702,128.207034 L85.5922512,128.207034 C88.1588275,109.935846 103.848755,95.8749553 122.83189,95.8749553 C141.738056,95.8749553 157.382168,109.821336 160.043124,127.984427 L160.043124,127.984427 L181.17225,127.984427 C183.834123,109.821336 199.477318,95.8749553 218.383484,95.8749553 C239.158,95.8749553 255.999725,112.711564 255.999725,133.481814 C255.999725,154.251149 239.158,171.087757 218.383484,171.087757 C199.477318,171.087757 183.833206,157.140461 181.17225,138.97737 L181.17225,138.97737 L160.04404,138.97737 C157.383084,157.140461 141.738972,171.087757 122.83189,171.087757 C103.961461,171.087757 88.3384237,157.194509 85.633485,139.080887 L85.633485,139.080887 L81.1179234,139.21555 C73.6830071,139.15967 65.8284723,137.174293 59.5196976,132.887962 C57.799789,131.719045 56.105487,130.49088 54.3379305,129.32746 L54.3379305,129.32746 L54.3374174,131.769284 C54.3277767,132.558717 54.1853819,144.42618 54.1739371,157.602471 L54.1735534,160.392388 C54.1788974,169.03343 54.2472161,177.937094 54.4506363,184.431359 C54.8968779,198.678213 66.4854144,210.176832 79.2733971,212.868271 C80.9355782,213.217297 83.7935402,213.262185 85.5940838,213.106451 C88.1652417,194.841676 103.853336,180.786282 122.83189,180.786282 C143.606406,180.786282 160.448131,197.623807 160.448131,218.393141 C160.448131,239.162475 143.606406,256 122.83189,256 C104.063171,256 88.5088569,242.256073 85.6793004,224.286275 L85.6793004,224.286275 L82.4254937,224.286275 C57.9894145,222.952464 42.7970419,200.539685 43.0618547,182.362853 C43.3963068,159.485622 43.1443223,136.59923 43.1406571,113.716502 L43.1406571,113.716502 L43.1406571,106.152441 C18.5460568,101.286232 7.10542736e-14,79.6063152 7.10542736e-14,53.5905987 C7.10542736e-14,23.9920988 23.9990007,0 53.6039685,0 Z M122.83189,191.779225 C108.130658,191.779225 96.2122511,203.69466 96.2122511,218.393141 C96.2122511,233.091622 108.130658,245.007057 122.83189,245.007057 C137.534038,245.007057 149.452446,233.091622 149.452446,218.393141 C149.452446,203.69466 137.534038,191.779225 122.83189,191.779225 Z M122.83189,106.867899 C108.130658,106.867899 96.2122511,118.783333 96.2122511,133.481814 C96.2122511,148.17938 108.130658,160.094814 122.83189,160.094814 C137.534038,160.094814 149.452446,148.17938 149.452446,133.481814 C149.452446,118.783333 137.534038,106.867899 122.83189,106.867899 Z M218.383484,106.867899 C203.681336,106.867899 191.763845,118.783333 191.763845,133.481814 C191.763845,148.17938 203.681336,160.094814 218.383484,160.094814 C233.085632,160.094814 245.004039,148.17938 245.004039,133.481814 C245.004039,118.783333 233.085632,106.867899 218.383484,106.867899 Z M233.544061,122.276432 C235.638739,124.366008 235.696466,127.723436 233.714494,129.881717 L233.55414,130.050276 L217.244789,146.39495 C215.166604,148.478113 211.83033,148.547735 209.667845,146.592823 L209.495579,146.429761 L201.510879,138.569807 C199.347478,136.439924 199.319988,132.959741 201.450403,130.79688 C203.526755,128.688983 206.884104,128.609284 209.056668,130.577021 L209.225269,130.737334 L213.317496,134.764416 L225.769194,122.286509 C227.913353,120.136473 231.394404,120.132808 233.544061,122.276432 Z M137.554197,122.195909 C139.648875,124.285484 139.706603,127.642913 137.72463,129.80211 L137.564277,129.969752 L121.254926,146.314427 C119.176741,148.39759 115.840467,148.467212 113.677982,146.5123 L113.505716,146.349238 L105.521015,138.489283 C103.357614,136.359401 103.330125,132.879218 105.460539,130.716356 C107.535975,128.608459 110.894241,128.528761 113.066805,130.497414 L113.235405,130.656811 L117.327633,134.683893 L129.779331,122.205986 C131.92349,120.056866 135.404541,120.052285 137.554197,122.195909 Z M53.6039685,10.9929433 C30.0722845,10.9929433 10.9956858,30.0638679 10.9956858,53.5905987 C10.9956858,77.1164136 30.0722845,96.1882542 53.6039685,96.1882542 C77.1356525,96.1882542 96.2122511,77.1164136 96.2122511,53.5905987 C96.2122511,30.0638679 77.1356525,10.9929433 53.6039685,10.9929433 Z M49.1705996,28.1303923 C58.1348325,33.5160185 66.9781128,39.0866925 75.7013569,44.8414984 C83.0089064,49.661904 82.9905803,58.4040422 75.6014794,63.2354408 C66.7224631,69.0452113 57.7023355,74.6158854 48.5429292,79.9474629 C41.0878542,84.2869273 32.7430449,79.2970471 32.540541,70.6034611 C32.4104254,65.0007243 32.5167171,59.392491 32.5093866,53.7860899 C32.5029725,48.3317579 32.3957645,42.8746776 32.5277127,37.4230938 C32.7503754,28.1752802 41.2637851,23.3567067 49.1705996,28.1303923 Z M43.2613347,37.0016976 L43.2613347,40.8702976 C43.2604184,42.785818 43.2604184,44.6756881 43.2595021,46.5444885 L43.2585858,50.2546069 L43.2585858,55.7355052 C43.2595021,59.9659562 43.2613347,64.1295335 43.2686652,68.2931108 C43.2723304,70.252603 44.2921803,70.1729041 45.6116626,69.355762 C53.217012,64.6416215 60.8260266,59.9329774 68.4387064,55.2289137 C69.6967961,54.4529951 69.7325321,53.6422656 68.4982664,52.8635988 C60.3449653,47.7253138 52.1806686,42.6044344 43.2613347,37.0016976 Z" fill="#4A7EBF"></path>
				<path d="M133.22712,223.879078 C136.262846,223.879078 138.724963,221.41849 138.724963,218.382606 C138.724963,215.347638 136.262846,212.886134 133.22712,212.886134 C130.191394,212.886134 127.729277,215.347638 127.729277,218.382606 C127.729277,221.41849 130.191394,223.879078 133.22712,223.879078" fill="#85B3DF"></path>
				<path d="M112.178903,223.879078 C115.214629,223.879078 117.676746,221.41849 117.676746,218.382606 C117.676746,215.347638 115.214629,212.886134 112.178903,212.886134 C109.143178,212.886134 106.68106,215.347638 106.68106,218.382606 C106.68106,221.41849 109.143178,223.879078 112.178903,223.879078" fill="#85B3DF"></path>
				<path d="M218.383759,245.007057 C203.68161,245.007057 191.76412,233.091622 191.76412,218.393141 C191.76412,203.69466 203.68161,191.779225 218.383759,191.779225 C233.084991,191.779225 245.004314,203.69466 245.004314,218.393141 C245.004314,233.091622 233.084991,245.007057 218.383759,245.007057 M218.383759,180.786282 C199.477593,180.786282 183.833481,194.733579 181.172525,212.896669 L175.020439,212.896669 C172.334743,212.896669 170.155764,215.358172 170.155764,218.393141 C170.155764,221.429025 172.334743,223.889613 175.020439,223.889613 L181.172525,223.889613 C183.833481,242.052703 199.477593,256 218.383759,256 C239.158275,256 256,239.162475 256,218.393141 C256,197.623807 239.158275,180.786282 218.383759,180.786282" fill="#85B3DF"></path>
    </g>
</svg>
